assets/icons/functional/office&editing/folder-star.svg

<svg width="32" height="32" viewBox="0 0 32 32" fill="none" xmlns="http://www.w3.org/2000/svg"><g id="Icon-FolderStar"><g clip-path="url(#clip0_12_741)"><g id="size=md (32px)"><g id="FolderStar"><path id="Vector" d="M4 10V7.00001C4 6.73479 4.10536 6.48044 4.29289 6.2929C4.48043 6.10536 4.73478 6.00001 5 6.00001H11.5875C11.7174 5.99955 11.846 6.02471 11.9661 6.07404C12.0862 6.12338 12.1955 6.19591 12.2875 6.28751L16 10" stroke="#101828" stroke-width="2" stroke-linecap="round" stroke-linejoin="round"/><path id="Vector_2" d="M15.075 26H4.925C4.80353 26 4.68324 25.9761 4.57102 25.9296C4.45879 25.8831 4.35682 25.815 4.27093 25.7291C4.18503 25.6432 4.1169 25.5412 4.07041 25.429C4.02393 25.3168 4 25.1965 4 25.075V10H27C27.2652 10 27.5196 10.1054 27.7071 10.2929C27.8946 10.4804 28 10.7348 28 11V15" stroke="#101828" stroke-width="2" stroke-linecap="round" stroke-linejoin="round"/><path id="Vector_3" d="M23.5 24.8125L27.2125 27L26.2 22.925L29.5 20.2L25.1625 19.8625L23.5 16L21.8375 19.8625L17.5 20.2L20.8 22.925L19.7875 27L23.5 24.8125Z" stroke="#101828" stroke-width="2" stroke-linecap="round" stroke-linejoin="round"/></g></g></g></g><defs><clipPath id="clip0_12_741"><rect width="32" height="32" rx="5" fill="white"/></clipPath></defs></svg>

<svg xmlns="http://www.w3.org/2000/svg" width="32" height="32" fill="none"><g clip-path="url(#a)" stroke="#101828" stroke-linecap="round" stroke-linejoin="round" stroke-width="2"><path d="M4 10V7a1 1 0 0 1 1-1h6.588a.987.987 0 0 1 .7.288L16 10m-.925 16H4.925A.925.925 0 0 1 4 25.075V10h23a1 1 0 0 1 1 1v4"/><path d="M23.5 24.813 27.212 27 26.2 22.925l3.3-2.725-4.337-.337L23.5 16l-1.663 3.863-4.337.337 3.3 2.725L19.788 27l3.712-2.188Z"/></g><defs><clipPath id="a"><rect width="32" height="32" fill="#fff" rx="5"/></clipPath></defs></svg>
